X:1
T:Pentatone, CMD
T:Pentatone, CMD
T:Henry Walford Davies, 1923
C:Henry Walford Davies, 1923
%%score ( 1 2 ) ( 3 4 )
L:1/8
Q:1/4=110
M:4/4
K:Eb
V:1 treble 
V:2 treble 
V:3 bass 
V:4 bass 
V:1
 (EF) | [EG]2 B2 [Ee]2 [Gc]2 | [GB]3 [DG] [DG]2 [Gc]2 | [GB]2 [EG]2 [EG]2 ([CF][DG]) | %4
 [B,E]6 [Ec][Ec] | [DB]2 [DG]2 [DG]2 (FG) | E3 [G,C] [G,C]2 (DE) | [CF]2 [EG]2 [FB]2 [EG]2 | %8
 F6 (GA) | [CF]2 c2 [EB]2 [EG]2 | [CF]3 [=A,C] [A,C]2 (CD) | [CE]2 G2 [Gc]2 [EG]2 | %12
 [Dd]6 [CE][DF] | [EG]2 [EB]2 [Ee]2 [Gc]2 | [DB]3 [EG] [EG]2 [Gc]2 | [GB]2 [EG]2 [DG]2 ([CF][DG]) | %16
 [B,E]6 |] %17
V:2
 B,2 | x2 (GF) x4 | x8 | x8 | x8 | x6 D2 | E3 C2 x3 | x8 | (C4 _D2) D2 | x2 (CD) x4 | x6 C2 | %11
 x2 (EF) x4 | x8 | x8 | x8 | x8 | x6 |] %17
V:3
 (G,A,) | [E,B,]2 B,2 [C,C]2 [E,G,]2 | [G,D]3 [G,B,] [G,B,]2 [C,E]2 | [E,E]2 [G,B,]2 B,2 (A,B,) | %4
 [E,G,]6 [C,G,][E,G,] | [G,B,]2 B,2 B,2 (A,B,) | [C,G,]3 E, E,2 (F,G,) | %7
 [F,A,]2 [C,G,]2 [B,,D]2 [C,E]2 | ([F,A,]4 [B,,B,]2) [B,,B,]2 | [F,A,]2 [F,A,]2 [G,B,]2 [E,B,]2 | %10
 [F,=A,]3 [F,A,] [F,A,]2 [F,_A,]2 | [C,G,]2 ([C,E][D,D]) [E,C]2 [C,E]2 | %12
 ([G,B,]4 [F,A,]2) [G,B,][F,A,] | [E,G,]2 G,2 [C,G,]2 [E,G,]2 | [G,B,]3 [E,B,] [E,B,]2 [C,E]2 | %15
 [E,E]2 [G,C]2 B,2 (A,B,) | [E,G,]6 |] %17
V:4
 E,2 | x2 (E,D,) x4 | x8 | x4 B,2 B,,2 | x8 | x2 B,2 B,2 B,,2 | x3 E, E,2 C,2 | x8 | x8 | x8 | x8 | %11
 x8 | x8 | x2 (E,D,) x4 | x8 | x4 B,2 B,,2 | x6 |] %17

